static/images/big-logo.svg

<?xml version="1.0" encoding="UTF-8" standalone="no"?>
<svg width="518px" height="484px" viewBox="0 0 518 484" version="1.1" xmlns="http://www.w3.org/2000/svg" xmlns:xlink="http://www.w3.org/1999/xlink">
    <defs>
        <path d="M0,0 L550,0 L550,504 L0,504 L0,0 Z M253.709139,125.222971 C258.57477,127.305582 257.162478,136.650102 257.162478,136.650102 C257.162478,136.650102 253.709139,142.789041 249.193438,142.789041 C244.677736,142.789041 233.256319,141.072313 221.925371,142.789041 C210.594423,144.50577 185.391354,157.304775 160.489453,157.304775 C135.587551,157.304775 89.9869655,143.470775 89.9869655,143.470775 L89.3503154,144.961475 C87.9766726,144.930766 83.7392537,143.517682 79.0081324,141.954794 C75.2422607,140.710769 71.163588,139.371831 67.9673847,138.559589 C61.5796951,136.936303 59.5017407,134.833899 58.922705,136.650104 C58.2384071,138.796476 61.2007508,141.052746 61.5851368,141.789043 C61.9695229,142.525341 60.8079396,143.924854 55.5217263,142.789041 C43.6400973,140.236116 33.0795696,126.458643 32.1034743,128.020159 C30.9546422,129.858011 39.7741862,143.831795 50.1578004,151.406717 C57.0993963,156.470662 69.5029572,157.780372 76.6653002,159.391467 C80.2167768,160.190335 82.5901426,160.581467 82.5901426,160.581467 L73.8636592,191.969326 C73.8636592,191.969326 121.816123,204.795139 152.764218,205.994426 C183.712312,207.193714 209.213436,197.788509 214.908947,197.435054 C220.604458,197.0816 226.591965,200.242011 233.579724,208.691524 C240.350673,216.878873 242.433197,230.555467 242.433201,240.334386 C242.433208,260.205352 231.639553,280.55302 225.657284,285.187511 C219.675015,289.822002 142.916951,316.785717 133.342183,326.474773 C123.767415,336.16383 85.8159006,424.127 85.7999844,445.146404 C85.79847,447.146404 102.420453,448.146404 102.420453,448.146404 C102.420453,448.146404 101.327855,455.15147 98.8237194,457.409893 C96.3195843,459.668316 74.6329136,461.518619 66.9673847,465.923504 C62.5533861,468.459944 60.8990254,475.829052 61.5851368,477.233867 C62.2712483,478.638683 125.428074,478.603222 126.73605,477.233867 C128.044026,475.864513 126.736051,449.146402 126.736051,449.146402 C126.736051,449.146402 140.138966,447.955181 140.138966,445.146404 C140.138966,415.400335 160.491131,376.648113 189.426602,360.24406 C218.362072,343.840007 260.37637,332.979351 295.363278,336.810741 C330.350186,340.642132 370.052548,361.019085 384.194973,379.959392 C396.368465,396.262796 389.512234,443.071348 389.512234,453.409893 C389.512234,455.398113 399.171566,455.409893 399.171566,455.409893 C399.171566,455.409893 395.505503,475.565385 396.271945,476.987288 C397.038388,478.409191 461.341401,479.738009 465.911955,479.233875 C470.482508,478.729742 465.845265,469.920998 460.31329,466.923504 C454.61592,463.83639 436.230196,460.860053 429.158657,458.917766 C427.196205,458.378754 427.480614,455.729406 427.480613,455.4099 C427.480613,455.4099 445.561924,455.596643 445.860623,453.409893 C448.096728,437.039524 439.251716,366.150453 431.976956,348.833599 C425.938154,334.458822 353.565789,293.274063 353.565789,293.274063 C353.565789,293.274063 347.205197,280.050853 345.078061,255.384639 C342.950924,230.718425 351.754605,184.409649 357.738278,177.601558 C363.721951,170.793468 408.031429,166.86656 442.745755,144.961475 C477.46008,123.05639 506.159634,95.9024806 506.159634,91.7223164 C506.159634,91.0854354 502.779072,89.8198198 499.77792,88.0119036 C496.649698,86.1274394 493.895615,83.7115532 493.895615,83.7115532 C493.895615,83.7115532 506.611823,74.7022979 512.920559,60.1043642 C519.229296,45.5064304 520.86221,26.6958406 517.18768,26.6958406 C513.51315,26.6958406 512.1423,39.4267397 504.705136,48.7649172 C497.267971,58.1030946 492.774705,58.3044824 491.908566,57.2317732 C490.218952,55.1391935 490.622939,48.0397827 489.8664,43.4518708 C489.418266,40.7342361 487.698293,40.4549893 486.902188,40.8253591 C484.073138,42.1415106 483.270291,64.9499585 478.635952,69.7342336 C478.635952,69.7342336 477.605672,68.6789783 476.799618,67.612581 C476.081869,66.6630088 475.630701,65.6587818 474.868954,66.0919911 C464.905301,71.758373 445.860623,98.4911687 411.226254,110.880169 C376.591885,123.269169 342.942002,115.284182 333.287777,117.659488 C326.758293,119.26599 306.775179,128.020159 302.55176,128.020159 C298.328341,128.020159 293.983673,126.133735 290.638887,122.002138 C288.514377,119.377867 285.118061,112.386152 285.62717,104.396543 L287.167849,106.056497 C287.376205,103.437571 290.458889,84.0369917 290.638891,81.2548012 C291.244434,71.8952429 287.184451,64.1158081 284.324249,59.0171082 C282.960209,56.5855209 280.125426,54.6317838 276.842612,52.9853162 C275.799181,52.4619921 274.222094,53.8518026 274.222094,53.8518026 C274.222094,53.8518026 274.222094,51.9257448 272.89395,51.40438 C271.565807,50.8830153 262.875061,49.0026998 259.502611,49.2343824 C252.668917,49.7038477 241.139321,52.9735237 233.679327,61.3538777 C228.545576,67.1209927 226.265054,76.1074129 226.497713,81.6811655 L227.562009,80.2943887 C227.736546,82.3159472 228.095944,84.2346183 228.523668,85.9934295 C230.201571,92.8929994 229.968909,97.5553483 228.469975,100.253429 C226.971041,102.951509 229.088558,105.454951 231.965621,105.45495 C234.842684,105.45495 232.944869,110.978925 233.180428,111.967479 C233.415987,112.956033 235.824814,112.839992 235.824814,112.839992 C235.824814,112.839992 234.482487,114.810749 234.832064,115.750269 C235.181641,116.689788 237.162203,116.5674 237.382464,117.026315 C237.602724,117.485231 236.395859,123.06239 237.802511,124.923183 C239.319086,126.929387 245.405306,124.358354 245.405306,124.358354 C245.405306,124.358354 248.843508,123.14036 253.709139,125.222971 Z" id="path-1"></path>
        <filter x="-50%" y="-50%" width="200%" height="200%" filterUnits="objectBoundingBox" id="filter-3">
            <feOffset dx="0" dy="0" in="SourceAlpha" result="shadowOffsetOuter1"></feOffset>
            <feGaussianBlur stdDeviation="7.5" in="shadowOffsetOuter1" result="shadowBlurOuter1"></feGaussianBlur>
            <feColorMatrix values="0 0 0 0 1   0 0 0 0 1   0 0 0 0 1  0 0 0 0.7 0" in="shadowBlurOuter1" type="matrix" result="shadowMatrixOuter1"></feColorMatrix>
            <feMerge>
                <feMergeNode in="shadowMatrixOuter1"></feMergeNode>
                <feMergeNode in="SourceGraphic"></feMergeNode>
            </feMerge>
        </filter>
    </defs>
    <g stroke="none" stroke-width="1" fill="none" fill-rule="evenodd">
        <g transform="translate(-174.000000, -155.000000)">
            <g>
                <g transform="translate(157.000000, 143.000000)">
                    <g>
                        <mask id="mask-2" fill="white">
                            <use xlink:href="#path-1"></use>
                        </mask>
                        <use fill-opacity="0" fill="#000000" xlink:href="#path-1"></use>
                        <path d="M253.709139,125.222971 C258.57477,127.305582 257.162478,136.650102 257.162478,136.650102 C257.162478,136.650102 253.709139,142.789041 249.193438,142.789041 C244.677736,142.789041 233.256319,141.072313 221.925371,142.789041 C210.594423,144.50577 185.391354,157.304775 160.489453,157.304775 C135.587551,157.304775 89.9869655,143.470775 89.9869655,143.470775 L89.3503154,144.961475 C87.9766726,144.930766 83.7392537,143.517682 79.0081324,141.954794 C75.2422607,140.710769 71.163588,139.371831 67.9673847,138.559589 C61.5796951,136.936303 59.5017407,134.833899 58.922705,136.650104 C58.2384071,138.796476 61.2007508,141.052746 61.5851368,141.789043 C61.9695229,142.525341 60.8079396,143.924854 55.5217263,142.789041 C43.6400973,140.236116 33.0795696,126.458643 32.1034743,128.020159 C30.9546422,129.858011 39.7741862,143.831795 50.1578004,151.406717 C57.0993963,156.470662 69.5029572,157.780372 76.6653002,159.391467 C80.2167768,160.190335 82.5901426,160.581467 82.5901426,160.581467 L73.8636592,191.969326 C73.8636592,191.969326 121.816123,204.795139 152.764218,205.994426 C183.712312,207.193714 209.213436,197.788509 214.908947,197.435054 C220.604458,197.0816 226.591965,200.242011 233.579724,208.691524 C240.350673,216.878873 242.433197,230.555467 242.433201,240.334386 C242.433208,260.205352 231.639553,280.55302 225.657284,285.187511 C219.675015,289.822002 142.916951,316.785717 133.342183,326.474773 C123.767415,336.16383 85.8159006,424.127 85.7999844,445.146404 C85.79847,447.146404 102.420453,448.146404 102.420453,448.146404 C102.420453,448.146404 101.327855,455.15147 98.8237194,457.409893 C96.3195843,459.668316 74.6329136,461.518619 66.9673847,465.923504 C62.5533861,468.459944 60.8990254,475.829052 61.5851368,477.233867 C62.2712483,478.638683 125.428074,478.603222 126.73605,477.233867 C128.044026,475.864513 126.736051,449.146402 126.736051,449.146402 C126.736051,449.146402 140.138966,447.955181 140.138966,445.146404 C140.138966,415.400335 160.491131,376.648113 189.426602,360.24406 C218.362072,343.840007 260.37637,332.979351 295.363278,336.810741 C330.350186,340.642132 370.052548,361.019085 384.194973,379.959392 C396.368465,396.262796 389.512234,443.071348 389.512234,453.409893 C389.512234,455.398113 399.171566,455.409893 399.171566,455.409893 C399.171566,455.409893 395.505503,475.565385 396.271945,476.987288 C397.038388,478.409191 461.341401,479.738009 465.911955,479.233875 C470.482508,478.729742 465.845265,469.920998 460.31329,466.923504 C454.61592,463.83639 436.230196,460.860053 429.158657,458.917766 C427.196205,458.378754 427.480614,455.729406 427.480613,455.4099 C427.480613,455.4099 445.561924,455.596643 445.860623,453.409893 C448.096728,437.039524 439.251716,366.150453 431.976956,348.833599 C425.938154,334.458822 353.565789,293.274063 353.565789,293.274063 C353.565789,293.274063 347.205197,280.050853 345.078061,255.384639 C342.950924,230.718425 351.754605,184.409649 357.738278,177.601558 C363.721951,170.793468 408.031429,166.86656 442.745755,144.961475 C477.46008,123.05639 506.159634,95.9024806 506.159634,91.7223164 C506.159634,91.0854354 502.779072,89.8198198 499.77792,88.0119036 C496.649698,86.1274394 493.895615,83.7115532 493.895615,83.7115532 C493.895615,83.7115532 506.611823,74.7022979 512.920559,60.1043642 C519.229296,45.5064304 520.86221,26.6958406 517.18768,26.6958406 C513.51315,26.6958406 512.1423,39.4267397 504.705136,48.7649172 C497.267971,58.1030946 492.774705,58.3044824 491.908566,57.2317732 C490.218952,55.1391935 490.622939,48.0397827 489.8664,43.4518708 C489.418266,40.7342361 487.698293,40.4549893 486.902188,40.8253591 C484.073138,42.1415106 483.270291,64.9499585 478.635952,69.7342336 C478.635952,69.7342336 477.605672,68.6789783 476.799618,67.612581 C476.081869,66.6630088 475.630701,65.6587818 474.868954,66.0919911 C464.905301,71.758373 445.860623,98.4911687 411.226254,110.880169 C376.591885,123.269169 342.942002,115.284182 333.287777,117.659488 C326.758293,119.26599 306.775179,128.020159 302.55176,128.020159 C298.328341,128.020159 293.983673,126.133735 290.638887,122.002138 C288.514377,119.377867 285.118061,112.386152 285.62717,104.396543 L287.167849,106.056497 C287.376205,103.437571 290.458889,84.0369917 290.638891,81.2548012 C291.244434,71.8952429 287.184451,64.1158081 284.324249,59.0171082 C282.960209,56.5855209 280.125426,54.6317838 276.842612,52.9853162 C275.799181,52.4619921 274.222094,53.8518026 274.222094,53.8518026 C274.222094,53.8518026 274.222094,51.9257448 272.89395,51.40438 C271.565807,50.8830153 262.875061,49.0026998 259.502611,49.2343824 C252.668917,49.7038477 241.139321,52.9735237 233.679327,61.3538777 C228.545576,67.1209927 226.265054,76.1074129 226.497713,81.6811655 L227.562009,80.2943887 C227.736546,82.3159472 228.095944,84.2346183 228.523668,85.9934295 C230.201571,92.8929994 229.968909,97.5553483 228.469975,100.253429 C226.971041,102.951509 229.088558,105.454951 231.965621,105.45495 C234.842684,105.45495 232.944869,110.978925 233.180428,111.967479 C233.415987,112.956033 235.824814,112.839992 235.824814,112.839992 C235.824814,112.839992 234.482487,114.810749 234.832064,115.750269 C235.181641,116.689788 237.162203,116.5674 237.382464,117.026315 C237.602724,117.485231 236.395859,123.06239 237.802511,124.923183 C239.319086,126.929387 245.405306,124.358354 245.405306,124.358354 C245.405306,124.358354 248.843508,123.14036 253.709139,125.222971 Z" stroke="#FFFFFF" stroke-width="2" filter="url(#filter-3)" mask="url(#mask-2)"></path>
                    </g>
                </g>
            </g>
        </g>
    </g>
</svg>

<svg width="518" height="484" viewBox="0 0 518 484" xmlns="http://www.w3.org/2000/svg" xmlns:xlink="http://www.w3.org/1999/xlink"><defs><path d="M0 0h550v504H0V0zm253.71 125.223c4.865 2.083 3.452 11.427 3.452 11.427s-3.453 6.14-7.97 6.14c-4.514 0-15.936-1.718-27.267 0-11.33 1.716-36.534 14.515-61.436 14.515S89.984 143.47 89.984 143.47l-.637 1.49c-1.374-.03-5.61-1.442-10.343-3.005-3.766-1.244-7.844-2.583-11.04-3.395-6.388-1.624-8.466-3.726-9.045-1.91-.685 2.146 2.278 4.403 2.662 5.14.385.735-.777 2.135-6.063 1-11.88-2.554-22.44-16.33-23.42-14.77-1.147 1.838 7.672 15.812 18.056 23.387 6.94 5.064 19.345 6.373 26.507 7.984 3.552.8 5.925 1.19 5.925 1.19l-8.727 31.39s47.953 12.827 78.9 14.026c30.95 1.2 56.45-8.205 62.146-8.56 5.694-.352 11.682 2.808 18.67 11.258 6.77 8.187 8.853 21.863 8.853 31.642 0 19.87-10.793 40.22-16.776 44.854-5.982 4.633-82.74 31.597-92.315 41.286-9.576 9.69-47.527 97.652-47.543 118.67-.002 2 16.62 3 16.62 3s-1.092 7.006-3.596 9.265c-2.503 2.26-24.19 4.11-31.856 8.516-4.414 2.536-6.068 9.905-5.382 11.31.686 1.405 63.843 1.37 65.15 0 1.31-1.37 0-28.088 0-28.088s13.404-1.19 13.404-4c0-29.746 20.35-68.498 49.287-84.902 28.935-16.404 70.95-27.265 105.936-23.433 34.986 3.832 74.69 24.21 88.83 43.15 12.174 16.303 5.318 63.11 5.318 73.45 0 1.988 9.66 2 9.66 2s-3.667 20.155-2.9 21.577c.765 1.42 65.07 2.75 69.64 2.246 4.57-.504-.068-9.313-5.6-12.31-5.697-3.088-24.083-6.064-31.154-8.006-1.964-.54-1.68-3.19-1.68-3.508 0 0 18.082.187 18.38-2 2.237-16.37-6.608-87.26-13.883-104.576-6.04-14.375-78.41-55.56-78.41-55.56s-6.36-13.223-8.49-37.89c-2.125-24.666 6.68-70.974 12.66-77.782 5.986-6.81 50.295-10.735 85.01-32.64 34.714-21.906 63.414-49.06 63.414-53.24 0-.637-3.38-1.902-6.382-3.71-3.128-1.885-5.882-4.3-5.882-4.3s12.716-9.01 19.025-23.608c6.31-14.598 7.942-33.408 4.268-33.408-3.675 0-5.046 12.73-12.483 22.07-7.437 9.337-11.93 9.538-12.796 8.466-1.69-2.093-1.287-9.192-2.044-13.78-.448-2.718-2.168-2.997-2.964-2.627-2.83 1.317-3.632 24.125-8.266 28.91 0 0-1.03-1.056-1.836-2.122-.718-.95-1.17-1.954-1.93-1.52-9.965 5.665-29.01 32.398-63.644 44.787-34.634 12.39-68.284 4.404-77.938 6.78-6.53 1.606-26.513 10.36-30.736 10.36-4.224 0-8.568-1.886-11.913-6.018-2.126-2.624-5.522-9.616-5.013-17.605l1.54 1.66c.21-2.62 3.292-22.02 3.472-24.804.604-9.36-3.456-17.14-6.316-22.238-1.364-2.43-4.2-4.386-7.48-6.033-1.045-.523-2.622.867-2.622.867s0-1.926-1.328-2.448c-1.328-.52-10.02-2.4-13.39-2.17-6.835.47-18.365 3.74-25.825 12.12-5.133 5.767-7.414 14.753-7.18 20.327l1.064-1.385c.175 2.022.534 3.94.962 5.7 1.678 6.9 1.445 11.56-.054 14.26-1.5 2.698.62 5.2 3.496 5.2s.98 5.525 1.213 6.513c.237.99 2.646.873 2.646.873s-1.343 1.97-.993 2.91c.35.94 2.33.818 2.55 1.277.22.46-.986 6.035.42 7.896 1.517 2.006 7.603-.565 7.603-.565s3.44-1.217 8.304.866z" id="a"/><filter x="-50%" y="-50%" width="200%" height="200%" filterUnits="objectBoundingBox" id="b"><feOffset in="SourceAlpha" result="shadowOffsetOuter1"/><feGaussianBlur stdDeviation="7.5" in="shadowOffsetOuter1" result="shadowBlurOuter1"/><feColorMatrix values="0 0 0 0 1 0 0 0 0 1 0 0 0 0 1 0 0 0 0.7 0" in="shadowBlurOuter1" result="shadowMatrixOuter1"/><feMerge><feMergeNode in="shadowMatrixOuter1"/><feMergeNode in="SourceGraphic"/></feMerge></filter></defs><g transform="translate(-17 -12)" fill="none" fill-rule="evenodd"><mask id="c" fill="#fff"><use xlink:href="#a"/></mask><use fill-opacity="0" fill="#000" xlink:href="#a"/><path d="M253.71 125.223c4.865 2.083 3.452 11.427 3.452 11.427s-3.453 6.14-7.97 6.14c-4.514 0-15.936-1.718-27.267 0-11.33 1.716-36.534 14.515-61.436 14.515S89.984 143.47 89.984 143.47l-.637 1.49c-1.374-.03-5.61-1.442-10.343-3.005-3.766-1.244-7.844-2.583-11.04-3.395-6.388-1.624-8.466-3.726-9.045-1.91-.685 2.146 2.278 4.403 2.662 5.14.385.735-.777 2.135-6.063 1-11.88-2.554-22.44-16.33-23.42-14.77-1.147 1.838 7.672 15.812 18.056 23.387 6.94 5.064 19.345 6.373 26.507 7.984 3.552.8 5.925 1.19 5.925 1.19l-8.727 31.39s47.953 12.827 78.9 14.026c30.95 1.2 56.45-8.205 62.146-8.56 5.694-.352 11.682 2.808 18.67 11.258 6.77 8.187 8.853 21.863 8.853 31.642 0 19.87-10.793 40.22-16.776 44.854-5.982 4.633-82.74 31.597-92.315 41.286-9.576 9.69-47.527 97.652-47.543 118.67-.002 2 16.62 3 16.62 3s-1.092 7.006-3.596 9.265c-2.503 2.26-24.19 4.11-31.856 8.516-4.414 2.536-6.068 9.905-5.382 11.31.686 1.405 63.843 1.37 65.15 0 1.31-1.37 0-28.088 0-28.088s13.404-1.19 13.404-4c0-29.746 20.35-68.498 49.287-84.902 28.935-16.404 70.95-27.265 105.936-23.433 34.986 3.832 74.69 24.21 88.83 43.15 12.174 16.303 5.318 63.11 5.318 73.45 0 1.988 9.66 2 9.66 2s-3.667 20.155-2.9 21.577c.765 1.42 65.07 2.75 69.64 2.246 4.57-.504-.068-9.313-5.6-12.31-5.697-3.088-24.083-6.064-31.154-8.006-1.964-.54-1.68-3.19-1.68-3.508 0 0 18.082.187 18.38-2 2.237-16.37-6.608-87.26-13.883-104.576-6.04-14.375-78.41-55.56-78.41-55.56s-6.36-13.223-8.49-37.89c-2.125-24.666 6.68-70.974 12.66-77.782 5.986-6.81 50.295-10.735 85.01-32.64 34.714-21.906 63.414-49.06 63.414-53.24 0-.637-3.38-1.902-6.382-3.71-3.128-1.885-5.882-4.3-5.882-4.3s12.716-9.01 19.025-23.608c6.31-14.598 7.942-33.408 4.268-33.408-3.675 0-5.046 12.73-12.483 22.07-7.437 9.337-11.93 9.538-12.796 8.466-1.69-2.093-1.287-9.192-2.044-13.78-.448-2.718-2.168-2.997-2.964-2.627-2.83 1.317-3.632 24.125-8.266 28.91 0 0-1.03-1.056-1.836-2.122-.718-.95-1.17-1.954-1.93-1.52-9.965 5.665-29.01 32.398-63.644 44.787-34.634 12.39-68.284 4.404-77.938 6.78-6.53 1.606-26.513 10.36-30.736 10.36-4.224 0-8.568-1.886-11.913-6.018-2.126-2.624-5.522-9.616-5.013-17.605l1.54 1.66c.21-2.62 3.292-22.02 3.472-24.804.604-9.36-3.456-17.14-6.316-22.238-1.364-2.43-4.2-4.386-7.48-6.033-1.045-.523-2.622.867-2.622.867s0-1.926-1.328-2.448c-1.328-.52-10.02-2.4-13.39-2.17-6.835.47-18.365 3.74-25.825 12.12-5.133 5.767-7.414 14.753-7.18 20.327l1.064-1.385c.175 2.022.534 3.94.962 5.7 1.678 6.9 1.445 11.56-.054 14.26-1.5 2.698.62 5.2 3.496 5.2s.98 5.525 1.213 6.513c.237.99 2.646.873 2.646.873s-1.343 1.97-.993 2.91c.35.94 2.33.818 2.55 1.277.22.46-.986 6.035.42 7.896 1.517 2.006 7.603-.565 7.603-.565s3.44-1.217 8.304.866z" stroke="#FFF" stroke-width="2" filter="url(#b)" mask="url(#c)"/></g></svg>
